Newaita-dark/actions/22/format-text-lowercase.svg

<?xml version="1.0" encoding="UTF-8"?>
<svg xmlns="http://www.w3.org/2000/svg" xmlns:xlink="http://www.w3.org/1999/xlink" width="22pt" height="22pt" viewBox="0 0 22 22" version="1.1">
<g id="surface1">
<path style=" stroke:none;fill-rule:nonzero;fill:rgb(47.058824%,56.470591%,61.176473%);fill-opacity:1;" d="M 11.824219 8.359375 L 11.824219 19.273438 L 13.644531 19.273438 L 13.644531 18.910156 C 14.179688 19.140625 14.800781 19.273438 15.464844 19.273438 C 17.273438 19.273438 18.765625 18.292969 19.050781 17 L 19.101562 17 L 19.101562 16.542969 C 19.101562 15.03125 17.480469 13.816406 15.464844 13.816406 C 14.800781 13.816406 14.179688 13.949219 13.644531 14.179688 L 13.644531 8.359375 Z M 15.464844 15.636719 C 16.472656 15.636719 17.28125 16.039062 17.28125 16.542969 C 17.28125 17.046875 16.472656 17.453125 15.464844 17.453125 C 14.457031 17.453125 13.644531 17.046875 13.644531 16.542969 C 13.644531 16.039062 14.457031 15.636719 15.464844 15.636719 Z M 15.464844 15.636719 "/>
<path style=" stroke:none;fill-rule:nonzero;fill:rgb(47.058824%,56.470591%,61.176473%);fill-opacity:1;" d="M 6.367188 10.175781 C 5.152344 10.175781 4.082031 10.617188 3.421875 11.300781 L 5.136719 12.234375 C 5.460938 12.085938 5.890625 11.996094 6.367188 11.996094 C 7.375 11.996094 8.1875 12.402344 8.1875 12.90625 L 8.1875 14.179688 C 7.652344 13.949219 7.03125 13.816406 6.367188 13.816406 C 4.351562 13.816406 2.730469 15.03125 2.730469 16.542969 L 2.730469 17 L 2.777344 17 C 3.066406 18.292969 4.558594 19.273438 6.367188 19.273438 C 7.03125 19.273438 7.652344 19.140625 8.1875 18.910156 L 8.1875 19.273438 L 10.003906 19.273438 L 10.003906 12.90625 C 10.003906 11.394531 8.382812 10.175781 6.367188 10.175781 Z M 6.367188 15.636719 C 7.375 15.636719 8.1875 16.039062 8.1875 16.542969 C 8.1875 17.046875 7.375 17.453125 6.367188 17.453125 C 5.359375 17.453125 4.546875 17.046875 4.546875 16.542969 C 4.546875 16.039062 5.359375 15.636719 6.367188 15.636719 Z M 6.367188 15.636719 "/>
<path style=" stroke:none;fill-rule:nonzero;fill:rgb(14.901961%,65.098041%,60.392159%);fill-opacity:1;" d="M 12.089844 2.738281 C 12.082031 2.5625 12.148438 2.390625 12.269531 2.265625 C 12.390625 2.136719 12.558594 2.066406 12.734375 2.066406 L 18.191406 2.066406 C 18.425781 2.066406 18.636719 2.191406 18.753906 2.394531 C 18.867188 2.59375 18.863281 2.84375 18.746094 3.042969 L 16.015625 7.589844 C 15.898438 7.785156 15.6875 7.902344 15.464844 7.902344 C 15.238281 7.902344 15.027344 7.785156 14.910156 7.589844 L 12.179688 3.042969 C 12.125 2.949219 12.09375 2.84375 12.089844 2.738281 Z M 13.871094 3.355469 L 15.464844 6.007812 L 17.054688 3.355469 Z M 13.871094 3.355469 "/>
</g>
</svg>

<svg xmlns="http://www.w3.org/2000/svg" width="22pt" height="22pt" viewBox="0 0 22 22"><path d="M11.824 8.36v10.913h1.82v-.363c.536.23 1.157.363 1.82.363 1.81 0 3.302-.98 3.587-2.273h.05v-.457c0-1.512-1.62-2.727-3.636-2.727-.664 0-1.285.133-1.82.364V8.36zm3.64 7.277c1.009 0 1.817.402 1.817.906s-.808.91-1.816.91-1.82-.406-1.82-.91.812-.906 1.82-.906zm0 0M6.367 10.176c-1.215 0-2.285.441-2.945 1.125l1.715.933c.324-.148.754-.238 1.23-.238 1.008 0 1.82.406 1.82.91v1.274a4.614 4.614 0 0 0-1.82-.364c-2.015 0-3.637 1.215-3.637 2.727V17h.047c.29 1.293 1.782 2.273 3.59 2.273.664 0 1.285-.132 1.82-.363v.363h1.817v-6.367c0-1.511-1.621-2.73-3.637-2.73zm0 5.46c1.008 0 1.82.403 1.82.907s-.812.91-1.82.91-1.82-.406-1.82-.91.812-.906 1.82-.906zm0 0" fill="#78909c"/><path d="M12.09 2.738a.641.641 0 0 1 .18-.472c.12-.13.289-.2.464-.2h5.457a.647.647 0 0 1 .555.977l-2.73 4.547a.644.644 0 0 1-1.106 0l-2.73-4.547a.656.656 0 0 1-.09-.305zm1.781.617l1.594 2.653 1.59-2.653zm0 0" fill="#26a69a"/></svg>
